X: 9
T: Out On The Ocean
R: jig
M: 6/8
L: 1/8
K: Gmaj
GAA BAB | Bgg B2A | GED G2A | BAA AGE |
GAA BAB | Bgg B2A | GED G2A| BGG G2D |
GAA BAB | Bgg B2A | GED GAc | BAA AGE |
GAA BAB | Bgg B2A | GED GAc| BGG GBd |
|:e2g e2d | efg edB | d2e d2B | ded dBA |
B3 Bcd | efg B2A | GED G2A|1 BGG GBd :|2 BGG G2D ||


Tune 108	Setting 21011

